public/assets/kaartFront3.svg

<svg width="245" height="349" viewBox="0 0 245 349" fill="none" xmlns="http://www.w3.org/2000/svg">
<path d="M245 347.345L8.63783 348.261L0 0L238.718 0.261752L245 347.345Z" fill="#FEF1F0"/>
<path d="M106.27 56.9307C100.511 44.6283 90.3029 54.5749 89.3868 62.2966C89.2559 63.0818 89.2559 63.8671 89.125 64.5215C88.9941 63.8671 88.9941 63.0818 88.8632 62.2966C87.9471 54.5749 77.6079 44.4974 71.9803 56.9307C66.3526 69.3639 89.125 96.9787 89.125 96.9787V96.717V96.9787C89.125 96.8479 112.028 69.233 106.27 56.9307Z" fill="#F37880"/>
<path d="M106.27 123.808C100.511 111.505 90.3029 121.452 89.3868 129.174C89.2559 129.959 89.2559 130.744 89.125 131.398C88.9941 130.744 88.9941 129.959 88.8632 129.174C87.9471 121.452 77.6079 111.374 71.9803 123.808C66.3526 136.241 89.125 163.725 89.125 163.725V163.463V163.725C89.125 163.725 112.028 136.11 106.27 123.808Z" fill="#F37880"/>
<path d="M106.269 190.554C100.51 178.251 90.3021 188.198 89.386 195.92C89.2551 196.705 89.2551 197.49 89.1242 198.145C88.9934 197.49 88.9933 196.705 88.8625 195.92C87.9463 188.198 77.6072 178.12 71.9795 190.554C66.221 202.856 89.1242 230.471 89.1242 230.471V230.209V230.471C89.1242 230.471 112.028 202.856 106.269 190.554Z" fill="#F37880"/>
<path d="M106.269 257.302C100.51 244.999 90.3021 254.946 89.386 262.668C89.2551 263.453 89.2551 264.238 89.1242 264.893C88.9934 264.238 88.9933 263.453 88.8625 262.668C87.9463 254.946 77.6072 244.869 71.9795 257.302C66.221 269.604 89.1242 297.219 89.1242 297.219V296.957V297.219C89.1242 297.35 112.028 269.735 106.269 257.302Z" fill="#F37880"/>
<path d="M175.504 56.9307C169.746 44.6283 159.537 54.5749 158.621 62.2966C158.49 63.0818 158.49 63.8671 158.359 64.5215C158.229 63.8671 158.229 63.0818 158.098 62.2966C157.182 54.5749 146.842 44.4974 141.215 56.9307C135.587 69.3639 158.359 96.8479 158.359 96.8479V96.5861V96.8479C158.359 96.8479 181.132 69.233 175.504 56.9307Z" fill="#F37880"/>
<path d="M175.504 123.808C169.746 111.505 159.537 121.452 158.621 129.174C158.49 129.959 158.49 130.744 158.359 131.398C158.229 130.744 158.229 129.959 158.098 129.174C157.182 121.452 146.842 111.374 141.215 123.808C135.587 136.241 158.359 163.725 158.359 163.725V163.463V163.725C158.359 163.725 181.132 136.11 175.504 123.808Z" fill="#F37880"/>
<path d="M175.503 190.554C169.745 178.251 159.537 188.198 158.62 195.92C158.49 196.705 158.49 197.49 158.359 198.145C158.228 197.49 158.228 196.705 158.097 195.92C157.181 188.198 146.842 178.12 141.214 190.554C135.455 202.856 158.359 230.471 158.359 230.471V230.209V230.471C158.359 230.471 181.131 202.856 175.503 190.554Z" fill="#F37880"/>
<path d="M175.503 257.302C169.745 244.999 159.537 254.946 158.62 262.668C158.49 263.453 158.49 264.238 158.359 264.893C158.228 264.238 158.228 263.453 158.097 262.668C157.181 254.946 146.842 244.869 141.214 257.302C135.455 269.604 158.359 297.219 158.359 297.219V296.957V297.219C158.359 297.35 181.131 269.735 175.503 257.302Z" fill="#F37880"/>
<path d="M142.257 221.05C136.499 208.747 126.29 218.694 125.374 226.416C125.243 227.201 125.243 227.986 125.113 228.641C124.982 227.986 124.982 227.201 124.851 226.416C123.935 218.694 113.595 208.617 107.968 221.05C102.209 233.352 125.113 260.967 125.113 260.967V260.705V260.967C124.982 260.967 147.885 233.352 142.257 221.05Z" fill="#F37880"/>
<path d="M139.507 93.3154C133.749 81.0131 123.54 90.9597 122.624 98.6813C122.493 99.4666 122.493 100.252 122.363 100.906C122.232 100.252 122.232 99.4666 122.101 98.6813C121.185 90.9597 110.845 80.8822 105.218 93.3154C99.4592 105.618 122.363 133.233 122.363 133.233V132.971V133.233C122.363 133.233 145.266 105.618 139.507 93.3154Z" fill="#F37880"/>
<path d="M28.2715 18.5863L28.1406 24.3449L34.4227 22.7744L33.7683 40.4426L40.7047 40.3117L39.9195 15.5762L28.2715 18.5863Z" fill="#F37880"/>
<path d="M58.2409 15.3138C46.2003 15.7064 46.9856 27.3544 47.2473 30.3645C47.5091 33.3747 48.9487 41.0964 57.4556 41.0964C65.7008 40.9655 68.5801 34.8143 68.711 27.0926C69.3654 14.7903 58.2409 15.3138 58.2409 15.3138ZM56.2778 34.9452C55.2308 34.6834 52.3515 34.9452 52.3515 28.1396C52.3515 21.3341 57.5866 21.4649 57.5866 21.4649C57.5866 21.4649 63.6068 19.8944 63.9994 28.2705C64.3921 36.6466 57.3248 35.2069 56.2778 34.9452Z" fill="#F37880"/>
<path d="M219.087 329.94L219.349 324.182L212.936 325.752L213.591 308.084H206.785L207.44 332.95L219.087 329.94Z" fill="#F37880"/>
<path d="M189.113 333.212C201.154 332.82 200.369 321.172 200.107 318.162C199.845 315.151 198.405 307.43 189.898 307.43C181.653 307.561 178.774 313.712 178.643 321.433C178.12 333.736 189.113 333.212 189.113 333.212ZM191.207 313.581C192.254 313.843 195.133 313.581 195.133 320.386C195.133 327.192 189.898 327.061 189.898 327.061C189.898 327.061 183.878 328.632 183.485 320.256C182.962 311.879 190.029 313.319 191.207 313.581Z" fill="#F37880"/>
<path d="M54.9697 49.6016C52.7448 44.8901 48.8185 48.6855 48.5567 51.6957C48.5567 51.9574 48.4258 52.35 48.4258 52.6118C48.4258 52.35 48.4258 52.0883 48.2949 51.8265C47.9023 48.8164 43.976 45.021 41.882 49.7325C39.788 54.4441 48.4258 65.045 48.4258 65.045V64.9141V65.045C48.4258 64.7833 57.0637 54.3132 54.9697 49.6016Z" fill="#F37880"/>
<path d="M196.835 298.266C199.06 302.977 202.986 299.182 203.248 296.172C203.248 295.91 203.379 295.517 203.379 295.255C203.379 295.517 203.379 295.779 203.51 296.041C203.903 299.051 207.829 302.846 209.923 298.135C212.148 293.423 203.379 282.822 203.379 282.822V282.953V282.822C203.379 282.953 194.741 293.554 196.835 298.266Z" fill="#F37880"/>
</svg>

<svg width="245" height="349" fill="none" xmlns="http://www.w3.org/2000/svg"><path d="M245 347.345l-236.362.916L0 0l238.718.262L245 347.345z" fill="#FEF1F0"/><path d="M106.27 56.93c-5.759-12.302-15.967-2.355-16.883 5.367-.131.785-.131 1.57-.262 2.225-.13-.655-.13-1.44-.262-2.225-.916-7.722-11.255-17.8-16.883-5.366-5.627 12.433 17.145 40.048 17.145 40.048v-.262.262c0-.131 22.903-27.746 17.145-40.048zM106.27 123.808c-5.759-12.303-15.967-2.356-16.883 5.366-.131.785-.131 1.57-.262 2.224-.13-.654-.13-1.439-.262-2.224-.916-7.722-11.255-17.8-16.883-5.366-5.627 12.433 17.145 39.917 17.145 39.917v-.262.262s22.903-27.615 17.145-39.917zM106.269 190.554c-5.759-12.303-15.967-2.356-16.883 5.366-.13.785-.13 1.57-.262 2.225-.13-.655-.13-1.44-.261-2.225-.917-7.722-11.256-17.8-16.883-5.366-5.759 12.302 17.144 39.917 17.144 39.917v-.262.262s22.904-27.615 17.145-39.917zM106.269 257.302c-5.759-12.303-15.967-2.356-16.883 5.366-.13.785-.13 1.57-.262 2.225-.13-.655-.13-1.44-.261-2.225-.917-7.722-11.256-17.799-16.883-5.366-5.759 12.302 17.144 39.917 17.144 39.917v-.262.262c0 .131 22.904-27.484 17.145-39.917zM175.504 56.93c-5.758-12.302-15.967-2.355-16.883 5.367-.131.785-.131 1.57-.262 2.225-.13-.655-.13-1.44-.261-2.225-.916-7.722-11.256-17.8-16.883-5.366-5.628 12.433 17.144 39.917 17.144 39.917v-.262.262s22.773-27.615 17.145-39.917zM175.504 123.808c-5.758-12.303-15.967-2.356-16.883 5.366-.131.785-.131 1.57-.262 2.224-.13-.654-.13-1.439-.261-2.224-.916-7.722-11.256-17.8-16.883-5.366-5.628 12.433 17.144 39.917 17.144 39.917v-.262.262s22.773-27.615 17.145-39.917zM175.503 190.554c-5.758-12.303-15.966-2.356-16.883 5.366-.13.785-.13 1.57-.261 2.225-.131-.655-.131-1.44-.262-2.225-.916-7.722-11.255-17.8-16.883-5.366-5.759 12.302 17.145 39.917 17.145 39.917v-.262.262s22.772-27.615 17.144-39.917zM175.503 257.302c-5.758-12.303-15.966-2.356-16.883 5.366-.13.785-.13 1.57-.261 2.225-.131-.655-.131-1.44-.262-2.225-.916-7.722-11.255-17.799-16.883-5.366-5.759 12.302 17.145 39.917 17.145 39.917v-.262.262c0 .131 22.772-27.484 17.144-39.917zM142.257 221.05c-5.758-12.303-15.967-2.356-16.883 5.366-.131.785-.131 1.57-.261 2.225-.131-.655-.131-1.44-.262-2.225-.916-7.722-11.256-17.799-16.883-5.366-5.759 12.302 17.145 39.917 17.145 39.917v-.262.262c-.131 0 22.772-27.615 17.144-39.917zM139.507 93.315c-5.758-12.302-15.967-2.355-16.883 5.366-.131.786-.131 1.571-.261 2.225-.131-.654-.131-1.44-.262-2.225-.916-7.721-11.256-17.799-16.883-5.366-5.759 12.303 17.145 39.918 17.145 39.918v-.262.262s22.903-27.615 17.144-39.918zM28.271 18.586l-.13 5.759 6.282-1.57-.655 17.668 6.937-.131-.785-24.736-11.649 3.01zM58.24 15.314c-12.04.392-11.254 12.04-10.993 15.05.262 3.01 1.702 10.732 10.209 10.732 8.245-.13 11.124-6.282 11.255-14.003.654-12.303-10.47-11.78-10.47-11.78zm-1.962 19.631c-1.047-.262-3.926 0-3.926-6.805 0-6.806 5.235-6.675 5.235-6.675s6.02-1.57 6.412 6.805c.393 8.377-6.674 6.937-7.721 6.675zM219.087 329.94l.262-5.758-6.413 1.57.655-17.668h-6.806l.655 24.866 11.647-3.01zM189.113 333.212c12.041-.392 11.256-12.04 10.994-15.05-.262-3.011-1.702-10.732-10.209-10.732-8.245.131-11.124 6.282-11.255 14.003-.523 12.303 10.47 11.779 10.47 11.779zm2.094-19.631c1.047.262 3.926 0 3.926 6.805 0 6.806-5.235 6.675-5.235 6.675s-6.02 1.571-6.413-6.805c-.523-8.377 6.544-6.937 7.722-6.675zM54.97 49.602c-2.225-4.712-6.151-.916-6.413 2.094 0 .261-.131.654-.131.916 0-.262 0-.524-.131-.785-.393-3.01-4.319-6.806-6.413-2.094-2.094 4.711 6.544 15.312 6.544 15.312v-.13.13c0-.262 8.638-10.732 6.544-15.443zM196.835 298.266c2.225 4.711 6.151.916 6.413-2.094 0-.262.131-.655.131-.917 0 .262 0 .524.131.786.393 3.01 4.319 6.805 6.413 2.094 2.225-4.712-6.544-15.313-6.544-15.313v.131-.131c0 .131-8.638 10.732-6.544 15.444z" fill="#F37880"/></svg>
